packages/core/src/svgs/h2o.svg

<svg width="24" height="24" viewBox="0 0 24 24" fill="none" xmlns="http://www.w3.org/2000/svg">
<g clip-path="url(#clip0_31_11210)">
<path d="M0 0H24V24H0V0Z" fill="#4393EA"/>
<path fill-rule="evenodd" clip-rule="evenodd" d="M7.31594 6.85693L5.08737 9.89122L5.00165 10.0026C4.54308 10.6284 4.09308 11.2326 3.93022 12.0255C3.87451 12.3126 3.8488 12.6041 3.86165 12.8912C3.92165 14.6484 5.24165 16.2855 7.33308 16.2855C9.76308 16.2855 11.1217 14.0698 10.7017 12.0255C10.5388 11.2326 10.0931 10.6284 9.63022 10.0026L9.54451 9.89122L7.31594 6.85693ZM9.64737 10.4526C8.9188 9.3255 7.43165 7.45265 7.43165 7.45265C7.05605 8.26791 6.64128 9.06455 6.1888 9.83979C5.8288 10.4484 5.41737 10.9112 5.06165 11.3184C4.30308 12.1841 3.75022 12.8141 4.24308 14.0826C4.92022 15.8226 6.72451 16.4612 8.16023 15.7326C9.91737 14.8412 10.7317 12.1241 9.64737 10.4526Z" fill="white"/>
<path opacity="0.4" d="M9.64309 14.203L9.70309 13.6287C9.49588 14.0314 9.18207 14.3695 8.79588 14.606C8.40969 14.8426 7.96596 14.9686 7.51309 14.9702C5.68737 14.9873 4.81737 13.0673 5.74309 11.6359C6.30904 10.84 7.00439 10.1447 7.80023 9.57874L6.97309 8.3916C6.72645 8.88311 6.46344 9.36624 6.18452 9.84017C5.82452 10.4487 5.41737 10.9116 5.05737 11.3187C4.81737 11.593 4.5988 11.8416 4.42737 12.0945C4.19657 12.726 4.1302 13.4059 4.23452 14.0702L4.2388 14.083C4.91595 15.823 6.72452 16.4616 8.16023 15.733C8.79934 15.3881 9.31588 14.8536 9.6388 14.203H9.64309Z" fill="white"/>
<path d="M12.4286 11.1431H12V11.5716H12.4286V14.5716H12.8571V13.0716H14.5714V14.5716H15V11.1431H14.5714V12.6431H12.8571V11.1431H12.4286Z" fill="white"/>
<path fill-rule="evenodd" clip-rule="evenodd" d="M18.4288 14.5716C19.1402 14.5716 19.7145 13.8002 19.7145 12.8574C19.7145 11.9145 19.1402 11.1431 18.4288 11.1431C17.7174 11.1431 17.1431 11.9145 17.1431 12.8574C17.1431 13.8002 17.7174 14.5716 18.4288 14.5716ZM18.4288 14.1431C18.9002 14.1431 19.2859 13.5688 19.2859 12.8574C19.2859 12.1459 18.9002 11.5716 18.4288 11.5716C17.9574 11.5716 17.5716 12.1459 17.5716 12.8574C17.5716 13.5688 17.9574 14.1431 18.4288 14.1431Z" fill="white"/>
<path d="M15.6602 14.5714V14.46L16.0716 14.0014L16.1916 13.86C16.2216 13.8214 16.2473 13.7828 16.2602 13.7485C16.2763 13.7136 16.2851 13.6756 16.2859 13.6371C16.2859 13.5943 16.273 13.5514 16.2516 13.5214C16.231 13.488 16.2012 13.4613 16.1659 13.4443C16.1283 13.4267 16.0873 13.4179 16.0459 13.4185C15.9987 13.4185 15.9559 13.4314 15.9173 13.4485C15.8824 13.4685 15.854 13.4983 15.8359 13.5343C15.8167 13.5743 15.8079 13.6185 15.8102 13.6628H15.6644C15.6644 13.5857 15.6816 13.5214 15.7159 13.4657C15.7486 13.4097 15.796 13.3638 15.853 13.3328C15.9138 13.3009 15.9815 13.2847 16.0502 13.2857C16.123 13.2857 16.1873 13.3028 16.243 13.3328C16.2987 13.3628 16.3459 13.4057 16.3759 13.4614C16.4102 13.5128 16.4273 13.5728 16.4273 13.6371C16.4271 13.684 16.4184 13.7305 16.4016 13.7743C16.3844 13.8171 16.3587 13.8685 16.3159 13.9243C16.273 13.9757 16.2173 14.0443 16.1444 14.1214L15.8659 14.4214V14.4343H16.4487V14.5714H15.6602Z" fill="white"/>
</g>
<defs>
<clipPath id="clip0_31_11210">
<rect width="24" height="24" fill="white"/>
</clipPath>
</defs>
</svg>

<svg xmlns="http://www.w3.org/2000/svg" width="24" height="24" fill="none" viewBox="0 0 24 24"><g clip-path="url(#a)"><path fill="#4393EA" d="M0 0h24v24H0z"/><path fill="#fff" fill-rule="evenodd" d="M7.316 6.857 5.087 9.89l-.085.112c-.459.625-.909 1.23-1.072 2.022a3.7 3.7 0 0 0-.068.866c.06 1.757 1.38 3.394 3.471 3.394 2.43 0 3.789-2.215 3.369-4.26-.163-.792-.609-1.397-1.072-2.022l-.085-.112zm2.331 3.596c-.728-1.127-2.215-3-2.215-3Q6.868 8.676 6.189 9.84c-.36.608-.772 1.071-1.127 1.478-.759.866-1.312 1.496-.819 2.765.677 1.74 2.482 2.378 3.917 1.65 1.757-.892 2.572-3.609 1.487-5.28" clip-rule="evenodd"/><path fill="#fff" d="m9.643 14.203.06-.574a2.47 2.47 0 0 1-2.19 1.341c-1.826.017-2.696-1.903-1.77-3.334A8.7 8.7 0 0 1 7.8 9.579l-.827-1.187q-.37.737-.788 1.448c-.36.609-.768 1.072-1.128 1.479-.24.274-.458.523-.63.775a3.96 3.96 0 0 0-.192 1.976l.004.013c.677 1.74 2.486 2.379 3.921 1.65a3.5 3.5 0 0 0 1.479-1.53z" opacity=".4"/><path fill="#fff" d="M12.429 11.143H12v.429h.429v3h.428v-1.5h1.714v1.5H15v-3.429h-.429v1.5h-1.714v-1.5z"/><path fill="#fff" fill-rule="evenodd" d="M18.429 14.572c.711 0 1.286-.772 1.286-1.715 0-.942-.575-1.714-1.286-1.714s-1.286.771-1.286 1.714.574 1.715 1.286 1.715m0-.429c.471 0 .857-.574.857-1.286 0-.711-.386-1.285-.857-1.285-.472 0-.857.574-.857 1.285 0 .712.385 1.286.857 1.286" clip-rule="evenodd"/><path fill="#fff" d="M15.66 14.571v-.111l.412-.459.12-.141a.5.5 0 0 0 .068-.111.3.3 0 0 0 .026-.112.2.2 0 0 0-.034-.116.2.2 0 0 0-.086-.077.3.3 0 0 0-.12-.026.3.3 0 0 0-.129.03.2.2 0 0 0-.081.086.3.3 0 0 0-.026.129h-.146a.37.37 0 0 1 .189-.33.4.4 0 0 1 .197-.047q.11.001.193.047a.3.3 0 0 1 .133.128.3.3 0 0 1 .051.176.4.4 0 0 1-.025.137.6.6 0 0 1-.086.15q-.063.08-.172.197l-.278.3v.013h.583v.137z"/></g><defs><clipPath id="a"><path fill="#fff" d="M0 0h24v24H0z"/></clipPath></defs></svg>
